X:1
T:Bonjour, mon cœ
T:Bonjour, mon cœ
T:Orlando di Lasso
C:Orlando di Lasso
%%score [ 1 2 3 4 ]
L:1/8
Q:1/4=96
M:4/4
K:Eb
V:1 treble-8 nm="Tenor 1"
V:2 treble-8 nm="Tenor 2"
V:3 bass nm="Bass 1"
V:4 bass nm="Bass 2"
V:1
 d4 e4 | e4 d4 | z2 e2 f2 g2 | a4 g2 f2- | f=e/d/ e2 f4 | d4 e4 | e4 d4 | z2 e2 f2 g2 | %8
w: Bon- jour,|mon coeur,|Bon- jour, ma|dou- ce vi-|* * * * e,|Bon- jour,|mon oeil,|Bon- jour, ma|
 a4 g2 (f2- | f=e/d/ e2) f4 | z2 dc d2 e2 | ed c2 d2 z f | ff e2 f2 g2- | g2 f2 =e3 e | %14
w: chère a- mi-|* * * * e!|Hé! bon jour, ma|tou- te bel- le, Ma|mig- nar- di- se, bon-|* jour; Mes dé-|
 f2 g2 f2 f2 | =e4 z2 f2 | d2 d2 c2 c2 | =B3 B ce d2 | e6 e2 | f2 e2 _d2 e2 | c2 c2 _dd c2 | %21
w: li- ces, mon a-|mour, Mon|deux prin- temps, Ma|dou- ce fleur nou- vel-|le, Mon|doux plai- sir, Ma|dou- ce co- lom- bel-|
 c4 z2 e2 | e3 e d2 f2 | gggg f4 | f4 z2 a2- | a2 g2 f2 e2 | ff g2 c4 | d4 e4 | e6 f2 | e2 d2 c4 | %30
w: le, Mon|pas- se- reau, Ma|gen- te tour- te- rel-|le! Bon|_ jour ma dou-|ce re- bel- le,|Bon jour|ma dou-|ce- re bel-|
 d8 |] %31
w: le!|
V:2
 B4 c4 | B4 B4 | z2 B2 d2 e2 | e6 c2 | c4 =A4 | B4 c4 | B4 B4 | z2 B2 d2 e2 | e6 c2 | c4 =A4 | %10
w: Bon- jour,|mon coeur,|Bon- jour, ma|dou- ce|vi- e,|Bon- jour,|mon oeil,|Bon- jour, ma|chère a-|mi- e!|
 z2 BG B2 c2 | BB =A2 B2 z c | cc c2 d2 e2- | e2 d2 c3 c | c2 c2 c2 B2 | c4 z2 c2 | B2 B2 G2 A2 | %17
w: Hé! bon jour, ma|tou- te bel- le, Ma|mig- nar- di- se, bon-|* jour; Mes dé-|li- ces, mon a-|mour, Mon|deux prin- temps, Ma|
 G3 G Gc B2 | B4 c4 | _d2 c2 B2 B2 | =A2 A2 BB G2 | =A4 z2 B2 | c2 B2 B2 d2 | e3 e cd c2 | %24
w: dou- ce fleur nou- vel-|le, Mon|doux plai- sir, Ma|dou- ce co- lom- bel-|le, Mon|pas- se- reau, Ma|gen- te tour- te- rel-|
 d4 z2 e2- | e2 e2 d2 c2 | cc B2 =A4 | B3 A (GFGA) | B2 c2 c3 _d | c2 (B4 =A2) | B8 |] %31
w: le! Bon|_ jour ma dou-|ce re- bel- le,|Bon _ jour _ _ _|_ ma dou- ce-|re bel- *|le!|
V:3
 F,4 A,4 | G,4 F,4 | z2 G,2 B,4 | C4 B,2 A,2 | G,4 F,4- | F,2 F,2 A,4 | G,4 F,4 | z2 G,2 B,4 | %8
w: Bon- jour,|mon coeur,|Bon- jour,|ma dou- ce|vi- e,|_ Bon- jour,|mon oeil,|Bon- jour,|
 C4 B,2 A,2 | G,4 F,4 | z2 F,E, F,2 A,2 | G,F, F,2 F,2 z A, | A,A, G,2 A,2 B,2- | B,2 B,2 G,3 G, | %14
w: ma chère a-|mi- e!|Hé! bon jour, ma|tou- te bel- le, Ma|mig- nar- di- se, bon-|* jour; Mes dé-|
 A,2 G,2 A,2 F,2 | G,4 z2 A,2 | F,2 F,2 =E,2 F,2 | D,3 D, E,A, F,2 | G,4 A,4 | A,2 A,2 F,2 G,2 | %20
w: li- ces, mon a-|mour, Mon|deux prin- temps, Ma|dou- ce fleur nou- vel-|le, Mon|doux plai- sir, Ma|
 F,3 F, F,F, =E,2 | F,4 z2 G,2 | A,A, G,2 z F, B,2- | B,B, C2 =A, (B,2 A,) | B,4 z2 C2- | %25
w: dou- ce co- lom- bel-|le, Mon|pas- se- reau, Ma gen-|* te tour- te- rel- *|le! Bon|
 C2 B,2 B,2 G,G, | A, (F,2 =E,) F,2 F,2- | F,2 F,2 (B,3 A, | G,F, G,2) A,2 A,2- | A,2 F,2 F,4 | %30
w: _ jour ma dou- ce|re- bel- * le, Bon|_ jour ma _|_ _ _ dou- ce-|* re bel-|
 F,8 |] %31
w: le!|
V:4
 B,,4 A,,4 | E,4 B,,4 | z2 E,2 B,,2 E,2 | (A,,B,,C,D,) E,2 F,2 | C,4 F,,4 | B,,4 A,,4 | E,4 B,,4 | %7
w: Bon- jour,|mon coeur,|Bon- jour, ma|dou- * * * * ce|vi- e,|Bon- jour,|mon oeil,|
 z2 E,2 B,,2 E,2 | (A,,B,,C,D,) E,2 F,2 | C,4 F,,4 | z2 B,,C, B,,2 A,,2 | E,B,, F,2 B,,2 z F,, | %12
w: Bon- jour, ma|chère _ _ _ _ a-|mi- e!|Hé! bon jour, ma|tou- te bel- le, Ma|
 F,,F,, C,2 B,,2 E,2- | E,2 B,,2 C,3 C, | F,2 =E,2 F,2 _D,2 | C,4 z2 F,,2 | B,,2 B,,2 C,2 F,,2 | %17
w: mig- nar- di- se, bon-|* jour; Mes dé-|li- ces, mon a-|mour, Mon|deux prin- temps, Ma|
 G,,3 G,, C,A,, B,,2 | E,4 A,,4 | _D,2 A,,2 B,,2 E,,2 | F,,3 F,, B,,B,, C,2 | F,,4 z2 E,,2 | %22
w: dou- ce fleur nou- vel-|le, Mon|doux plai- sir, Ma|dou- ce co- lom- bel-|le, Mon|
 A,,2 E,,2 B,,2 B,,2 | E,2 C,2 F,B,, F,2 | B,,4 z2 A,,2- | A,,2 E,2 B,,2 C,2 | F,,A,, G,,2 F,,4 | %27
w: pas- se- reau, Ma|gen- te tour- te- rel-|le! Bon|_ jour ma dou-|ce re- bel- le,|
 B,,4 E,,2 (E,2- | E,D,C,B,, A,,2) F,,2 | A,,2 B,,2 F,,4 | B,,8 |] %31
w: Bon jour ma|_ _ _ _ _ dou-|ce- re bel-|le!|

